X:1
T:Title
%%score ( 1 2 3 ) ( 4 5 6 )
L:1/8
Q:1/4=100
M:3/4
K:Ab
V:1 treble nm="Midi_20"
V:2 treble 
V:3 treble 
V:4 bass nm="Midi_20"
V:5 bass 
V:6 bass 
V:1
"^Just as I am (8 8 8. 6.)""^Joseph Barnby\n(1838-96)" E2 F2 A2 | G4 E2 | A4 B2 | c6 | c2 c2 c2 | %5
 d4 c2 | B4 A2 | G6 ||[M:3/4] B2 c2 d2 | e4 c2 | A4 G2 | F6 | F2 G2 A2 | c4 B2 | A6 |] %15
V:2
 C2 C2 C2 | D4 B,2 | E4 E2 | E6 | E2 E2 E2 | F4 E2 | D4 =D2 | E6 ||[M:3/4] E2 E2 E2 | E4 E2 | %10
 E4 =E2 | F4 _E2 | F2 G2 A2 | C4 D2 | C6 |] %15
V:3
 x6 | x6 | x6 | x6 | x6 | x6 | x6 | x6 ||[M:3/4] x6 | x6 | x6 | x6 | D6 | E4 x2 | x6 |] %15
V:4
 E,2 F,2 A,2 | G,4 G,2 | A,4 G,2 | A,6 | C2 B,2 B,2 | =A,4 A,2 | B,4 B,2 | B,6 || %8
[M:3/4]"^1. Just as I am, Thine own to be,\nFriend of the young who lovest me,\nTo consecrate myself to Thee,\nO Jesus Christ, I come.\n\n2. In the glad morning of my day,\nMy life to give, my vows to pay,\nwith no reserve and no delay,\nWith all my heart I come." G,2 G,2 G,2 | %9
 A,4 A,2 | A,4 B,2 | %11
 A,4"^3. I would live ever in the light,\nI would work ever for the right,\nI would serve Thee with all my might,\nTherefore to Thee I come.\n\n4. Just as I am, young, strong, and free,\nTo be the best that I can be\nFor truth and righteousness and Thee,\nLord of my life, I come." =A,2 | %12
 F,2 G,2 A,2 | C4 G,2 | A,6 |] %15
V:5
 A,,2 A,,2 A,,2 | B,,4 D,2 | C,4 E,2 | A,6 | A,2 _G,2 G,2 | F,4 F,2 | B,,4 B,,2 | E,6 || %8
[M:3/4] D,2 E,2 D,2 | C,4 A,,2 | C,4 C,2 | D,4 F,2 | F,2 G,2 A,2 | C4 E,2 | A,,6 |] %15
V:6
 x6 | x6 | x6 | x6 | x6 | x6 | x6 | x6 ||[M:3/4] x6 | x6 | x6 | x6 | B,,6 | [E,G,]4 x2 | E,6 |] %15

